!! 00000] TT[WS
!!!OTL: Ba cong
!!!ARE: Asia, China, Shanxi Lishi
!! Ethnic Group: Han
!! WII, 53 (1)
!!!SCT: J0472
!!!YEM: Copyright 1995, estate of Helmut Schaffrath.
**kern
*ICvox
*Ivox
*M2/4
*k[b-e-]
*B-:
{8fff
8ggg
8fff
8ddd
=1
4.ccc
8bb-
=2
4ccc
4r}
=3
{4fff
8ddd
8ccc
=4
4.bb-
8gg
=5
2bb-}
=6
{8gg
8bb-
4ccc
=7
8fff
8ggg
8fff
8ddd
=8
4ccc
4fff
=9
8fff
8ddd
8ccc
8bb-}
=10
{8bb-
4ff
8bb-
=11
8ddd
8ccc
8bb-
8gg
=12
4.ff
8ee-
=13
4ff
4r}
=14
{8bb-
8ccc
8fff
8ggg
=15
4fff
8ccc
8bb-}
=16
{8bb-
4ff
8bb-
=17
8ddd
8ccc
8bb-
8ff
=18
4.ff
8ee-
=19
4ff
4r}
==
!!!AGN: Xiaodiao. Qingge, Sichun
!!!ONB: ESAC (Essen Associative Code) Database: CHINA
!!!AMT: simple duple
!!!AIN: vox
!!!EED: Helmut Schaffrath
!!!EEV: 1.0
*-
